X: 551
T: The christening
C: anon.
O: Ireland
B: Francis O'Neill: "The Dance Music of Ireland" (1907) no. 551
R: Reel
Z: Transcribed by Frank Nordberg - http://www.musicaviva.com
F: http://www.musicaviva.com/abc/tunes/ireland/oneill-1001/oneill-1001-055
1.abc
m: Tn4 = (3n/o/n/ (3o/n/o/ n2
M: C|
L: 1/8
K: D
(3(ABc) "^segno" |d3B BAFA|BcdB BAFA|BEED EFGe|fgec dcBc|d>D (3DDD (FD)FA
|Bcec BAFA|BEED EFGe|
fgec d2||(3(ABc)|d2(fd) Adfd|Adfd cdec|d2(fd) Adfd|fgaf gfec|d2(fd) Adfd|
Adfd cdeg|Tf4 Te4|a3f gfec "^segno" |]
W:
W:
W: From Musica Viva - http://www.musicaviva.com
W: the Internet center for free sheet music downloads.


